src/svgs/vote.svg

<svg xmlns="http://www.w3.org/2000/svg" viewBox="0 0 24 24" width="512" height="512"><path d="M15 6l-3 3-3-3h2V2h2v4zm3 6H6l1-3h10zm-2-1.5a.5.5 0 00-.5-.5h-7a.5.5 0 000 1h7a.5.5 0 00.5-.5zM6 13h12v9H6zm2.5 4.735l2.452 2.715 4.548-4.971-.863-.929-3.685 4.042-1.589-1.786z"/></svg>

<svg xmlns="http://www.w3.org/2000/svg" viewBox="0 0 24 24"><path d="M15,6,12,9,9,6h2V2h2V6Zm3,6H6L7,9H17Zm-2-1.5a.5.5,0,0,0-.5-.5h-7a.5.5,0,0,0,0,1h7A.5.5,0,0,0,16,10.5ZM6,13H18v9H6Zm2.5,4.735,2.452,2.715L15.5,15.479l-.863-.929-3.685,4.042L9.363,16.806Z"/></svg>
